img/popular/chart.svg

<svg width="111" height="39" viewBox="0 0 111 39" fill="none" xmlns="http://www.w3.org/2000/svg">
<path d="M1 26.7649C1 26.7649 6.09091 24.5877 8.5 26.2649C9.17988 26.7382 9.30448 27.3149 10 27.7649C11.8033 28.9317 13.4222 27.2207 15.5 27.7649C20.0491 28.9563 19.084 35.1485 23.5 36.7649C26.0736 37.707 28.1367 38.6527 30.5 37.2649C32.3213 36.1954 31.7105 33.8867 33.5 32.7649C35.8162 31.313 38.0354 33.9475 40.5 32.7649C43.8863 31.14 42.4312 27.005 45 24.2649C46.5227 22.6407 47.5208 21.7845 49.5 20.7649C51.1468 19.9166 52.4038 20.2049 54 19.2649C59.809 15.8439 54.75 4.43154 58 2.26488C59.5 1.2649 71.5 0.264924 73.5 1.7649C76.2944 3.86066 74.1524 8.76775 77.5 9.7649C78.81 10.1551 79.6576 10.0223 81 9.7649C83.7657 9.23449 84.1891 5.59325 87 5.7649C89.0066 5.88744 89.4897 8.28396 91.5 8.2649C94.7024 8.23455 93.3019 1.93315 96.5 1.7649C99.1522 1.62537 99.5374 4.77039 102 5.7649C103.669 6.43902 104.833 6.08604 106.5 6.7649C108.206 7.45956 110.5 9.2649 110.5 9.2649" stroke="#0BBA74"/>
</svg>

<svg width="111" height="39" viewBox="0 0 111 39" fill="none" xmlns="http://www.w3.org/2000/svg"><path d="M1 26.765s5.09-2.177 7.5-.5c.68.473.804 1.05 1.5 1.5 1.803 1.167 3.422-.544 5.5 0 4.55 1.191 3.584 7.383 8 9 2.574.942 4.637 1.888 7 .5 1.821-1.07 1.21-3.378 3-4.5 2.316-1.452 4.535 1.182 7 0 3.386-1.625 1.931-5.76 4.5-8.5 1.523-1.624 2.52-2.48 4.5-3.5 1.647-.848 2.904-.56 4.5-1.5 5.809-3.421.75-14.833 4-17 1.5-1 13.5-2 15.5-.5 2.794 2.096.652 7.003 4 8 1.31.39 2.158.257 3.5 0 2.766-.53 3.19-4.172 6-4 2.007.122 2.49 2.519 4.5 2.5 3.202-.03 1.802-6.332 5-6.5 2.652-.14 3.037 3.005 5.5 4 1.669.674 2.833.321 4.5 1 1.706.695 4 2.5 4 2.5" stroke="#0BBA74"/></svg>
